circle-punched/instagram-alt.svg

<svg version="1.1" xmlns="http://www.w3.org/2000/svg" xmlns:xlink="http://www.w3.org/1999/xlink" viewBox="0 0 1024 1024">
    <path d="M512 180c88.68 0 172.052 34.536 234.76 97.24 62.706 62.708 97.24 146.080 97.24 234.76s-34.534 172.052-97.24 234.76c-62.708 62.704-146.080 97.24-234.76 97.24s-172.052-34.536-234.76-97.24c-62.706-62.708-97.24-146.080-97.24-234.76s34.534-172.052 97.24-234.76c62.708-62.704 146.080-97.24 234.76-97.24zM512 100c-227.542 0-412 184.458-412 412s184.458 412 412 412 412-184.458 412-412-184.458-412-412-412v0zM665.138 481.76h-34.208c2.492 9.676 3.962 19.784 3.962 30.23 0 66.784-54.124 120.906-120.892 120.906-66.766 0-120.892-54.124-120.892-120.906 0-10.448 1.478-20.554 3.97-30.23h-34.208v166.248c0 8.338 6.768 15.098 15.126 15.098h272.014c8.358 0 15.128-6.76 15.128-15.098v-166.248zM665.138 375.982c0-8.344-6.772-15.114-15.128-15.114h-45.328c-8.35 0-15.112 6.77-15.112 15.114v45.342c0 8.34 6.762 15.114 15.112 15.114h45.328c8.358 0 15.128-6.774 15.128-15.114v-45.342zM514 436.438c-41.734 0-75.562 33.818-75.562 75.552 0 41.73 33.828 75.574 75.562 75.574s75.57-33.844 75.57-75.574c0-41.734-33.836-75.552-75.57-75.552zM665.138 708.46h-302.268c-25.032 0-45.33-20.302-45.33-45.356v-302.234c0-25.040 20.298-45.33 45.33-45.33h302.27c25.036 0 45.324 20.292 45.324 45.33v302.236c-0.002 25.052-20.29 45.354-45.326 45.354z"></path>
</svg>

<svg xmlns="http://www.w3.org/2000/svg" viewBox="0 0 1024 1024"><path d="M512 180c88.68 0 172.052 34.536 234.76 97.24C809.466 339.948 844 423.32 844 512s-34.534 172.052-97.24 234.76C684.052 809.464 600.68 844 512 844s-172.052-34.536-234.76-97.24C214.534 684.052 180 600.68 180 512s34.534-172.052 97.24-234.76C339.948 214.536 423.32 180 512 180zm0-80c-227.542 0-412 184.458-412 412s184.458 412 412 412 412-184.458 412-412-184.458-412-412-412zm153.138 381.76H630.93c2.492 9.676 3.962 19.784 3.962 30.23 0 66.784-54.124 120.906-120.892 120.906-66.766 0-120.892-54.124-120.892-120.906 0-10.448 1.478-20.554 3.97-30.23H362.87v166.248c0 8.338 6.768 15.098 15.126 15.098H650.01c8.358 0 15.128-6.76 15.128-15.098V481.76zm0-105.778c0-8.344-6.772-15.114-15.128-15.114h-45.328c-8.35 0-15.112 6.77-15.112 15.114v45.342c0 8.34 6.762 15.114 15.112 15.114h45.328c8.358 0 15.128-6.774 15.128-15.114v-45.342zM514 436.438c-41.734 0-75.562 33.818-75.562 75.552 0 41.73 33.828 75.574 75.562 75.574s75.57-33.844 75.57-75.574c0-41.734-33.836-75.552-75.57-75.552zM665.138 708.46H362.87c-25.032 0-45.33-20.302-45.33-45.356V360.87c0-25.04 20.298-45.33 45.33-45.33h302.27c25.036 0 45.324 20.292 45.324 45.33v302.236c-.002 25.052-20.29 45.354-45.326 45.354z"/></svg>
